src/icons/svg/download.svg

<svg width="24px" height="24px" viewBox="0 0 24 24" version="1.1" xmlns="http://www.w3.org/2000/svg"
>
    <rect id="矩形备份" fill="#D8D8D8" opacity="0" x="0" y="0" width="24" height="24"></rect>
    <rect id="矩形备份-5" fill="#F9F9F9" opacity="0" x="1" y="1" width="22" height="22"></rect>
    <path d="M20.8888889,13.6666667 C21.5,13.6666667 22,14.1666667 22,14.7777778 L22,19.2222223 C22,20.7777778 20.7777777,22 19.2222222,22 L4.77777778,22 C3.22222221,22 2,20.7777778 2,19.2222223 L2,14.7777778 C2,14.1666667 2.5,13.6666667 3.11111112,13.6666667 C3.72222221,13.6666667 4.22222222,14.1666667 4.22222222,14.7777778 L4.22222222,19.2222223 C4.22222224,19.5555556 4.44444446,19.7777778 4.77777778,19.7777778 L19.2222222,19.7777778 C19.5555556,19.7777778 19.7777778,19.5555556 19.7777778,19.2222223 L19.7777778,14.7777778 C19.7777777,14.1666667 20.2777777,13.6666667 20.8888889,13.6666667 Z M12.0555556,2 C12.6666667,2 13.1666667,2.5 13.1666667,3.11111112 L13.1666667,12.1666666 L14.5555556,10.7777778 C15,10.3333333 15.6666667,10.3333333 16.1111111,10.7777778 C16.5555555,11.2222222 16.5555555,11.8888889 16.1111111,12.3333333 L13.0555556,15.3888889 C12.7777778,15.6666666 12.3888889,15.8333333 12,15.8333333 C11.6111111,15.8333333 11.2222223,15.6666667 10.9444445,15.3888889 L8,12.3333333 C7.55555555,11.8888889 7.55555555,11.2222222 8,10.7777778 C8.44444445,10.3333333 9.1111111,10.3333333 9.55555555,10.7777778 L10.9444445,12.1666666 L10.9444445,3.11111112 C10.9444445,2.5 11.4444445,2 12.0555556,2 Z"
          id="形状结合" fill="#000000" fill-rule="nonzero"></path>
</svg>

<svg width="24" height="24" xmlns="http://www.w3.org/2000/svg"><path d="M20.889 13.667c.611 0 1.111.5 1.111 1.11v4.445A2.75 2.75 0 0 1 19.222 22H4.778A2.75 2.75 0 0 1 2 19.222v-4.444c0-.611.5-1.111 1.111-1.111s1.111.5 1.111 1.11v4.445c0 .334.222.556.556.556h14.444c.334 0 .556-.222.556-.556v-4.444c0-.611.5-1.111 1.11-1.111zM12.056 2c.61 0 1.11.5 1.11 1.111v9.056l1.39-1.39a1.074 1.074 0 0 1 1.555 0 1.074 1.074 0 0 1 0 1.556l-3.055 3.056a1.518 1.518 0 0 1-1.056.444c-.389 0-.778-.166-1.056-.444L8 12.333a1.074 1.074 0 0 1 0-1.555 1.074 1.074 0 0 1 1.556 0l1.388 1.389V3.11c0-.611.5-1.111 1.112-1.111z" fill="currentColor"/></svg>
